X:1
T:Hijaz Mandra
T:Hijaz Mandra
%%score 1 2
L:1/8
Q:1/4=110
M:7/8
K:Bb
V:1 treble nm="Piano" snm="Pno."
V:2 treble nm="Violin" snm="Vln."
V:1
|: D2 D2 DDD | D2 D2 D D2 :: ^F2 EF EDC | D2 E2 ^F GA | G^FE FE DC | D2 D2 D3 :: D2 G ^FE DE | %7
 ^F2 G2 A GA | D2 G ^FE DC |1 G2 ^F A G3 :|2 D2 D2 D3 |: G2 GD G2 G | A2 AG A2 A | d2 c =BB AG |1 %14
 =B2 A G^F =ED :|2 G2 G2 G3 || d2 d2 d dd | d2 d2 d dd |: =e2 d c=B AB | c=Bc =e d2 d | %20
 =e2 d c=B AB | c2 =BA G2 G :: d2 d=B c2 A | B2 BG A2 G | BAG A ^F2 E |1 DE^F GA =Bc :|2 %26
 D2 D2 D2 D |: CDE ^F G2 G | BAG ^FE DE | ^F2 G FE DC |1 G2 ^F A G3 :| C2 C C C3 |: C2 C2 E DC | %33
 C2 C2 E DC | C2 G ^FE DC | G2 ^F A G3 | C2 C2 E DC | C2 C2 E DC | C2 G ^FE DC | D2 D2 D3 |] %40
V:2
|: D2 D2 DDD | D2 D2 D D2 :: ^F2 EF EDC | D2 E2 ^F GA | G^FE FE DC | D2 D2 D3 :: D2 G ^FE DE | %7
 ^F2 G2 A GA | D2 G ^FE DC |1 G2 ^F A G3 :|2 D2 D2 D3 |: G2 GD G2 G | A2 AG A2 A | d2 c =BB AG |1 %14
 =B2 A G^F =ED :|2 G2 G2 G3 || d2 d2 d dd | d2 d2 d dd |: =e2 d c=B AB | c=Bc =e d2 d | %20
 =e2 d c=B AB | c2 =BA G2 G :: d2 d=B c2 A | B2 BG A2 G | BAG A ^F2 E |1 DE^F GA =Bc :|2 %26
 D2 D2 D2 D |: CDE ^F G2 G | BAG ^FE DE | ^F2 G FE DC |1 G2 ^F A G3 :| C2 C C C3 |: C2 C2 E DC | %33
 C2 C2 E DC | C2 G ^FE DC | G2 ^F A G3 | C2 C2 E DC | C2 C2 E DC | C2 G ^FE DC | D2 D2 D3 |] %40

